X:1
T:Princess Nancy
R:Double Jig
C:Liz Carroll
S:Harry Seaman <hseaman:EXECPC.COM> irtrad-l 2001-8-24
M:6/8
L:1/8
K:G
B2A BGE|EDE G2A|BAB deg|abg eag|
ede ~g2a|ged e2d|dBA BGE|EDE G2A:|
B2g edB|BAB d2B|AGA Add|AGA BGE|
B2g edB|BAB d2B|AGA BGE|EDE G2A|
B2g edB|BAB d2B|ABA ABd|egd ega|
bag age|egd e2d|dBA BGE|EDE G2A||
